X:9438
T:Le trou normand
R:polka
A:Normandie
O:France
M:2/4
L:1/8
Q:1/4=120
K:C
e2g2|dd ec|e2g2|dd c2:|
GB d2|cd e2|fedc|1 d e/2f/2 e d:|2 de c2||


